apps/24/system-file-manager.svg

<?xml version="1.0" encoding="UTF-8" standalone="no"?>
<!-- Created with Inkscape (http://www.inkscape.org/) -->

<svg
   xmlns:svg="http://www.w3.org/2000/svg"
   xmlns="http://www.w3.org/2000/svg"
   xmlns:xlink="http://www.w3.org/1999/xlink"
   version="1.0"
   width="24"
   height="24"
   id="svg2">
  <defs
     id="defs4">
    <radialGradient
       cx="605.71429"
       cy="486.64789"
       r="117.14286"
       fx="605.71429"
       fy="486.64789"
       id="radialGradient4361"
       xlink:href="#linearGradient5060"
       gradientUnits="userSpaceOnUse"
       gradientTransform="matrix(-2.774389,0,0,1.969706,112.7623,-872.8854)" />
    <linearGradient
       id="linearGradient5060">
      <stop
         id="stop5062"
         style="stop-color:black;stop-opacity:1"
         offset="0" />
      <stop
         id="stop5064"
         style="stop-color:black;stop-opacity:0"
         offset="1" />
    </linearGradient>
    <radialGradient
       cx="605.71429"
       cy="486.64789"
       r="117.14286"
       fx="605.71429"
       fy="486.64789"
       id="radialGradient4359"
       xlink:href="#linearGradient5060"
       gradientUnits="userSpaceOnUse"
       gradientTransform="matrix(2.774389,0,0,1.969706,-1891.633,-872.8854)" />
    <linearGradient
       id="linearGradient5048">
      <stop
         id="stop5050"
         style="stop-color:black;stop-opacity:0"
         offset="0" />
      <stop
         id="stop5056"
         style="stop-color:black;stop-opacity:1"
         offset="0.5" />
      <stop
         id="stop5052"
         style="stop-color:black;stop-opacity:0"
         offset="1" />
    </linearGradient>
    <linearGradient
       x1="302.85715"
       y1="366.64789"
       x2="302.85715"
       y2="609.50507"
       id="linearGradient4357"
       xlink:href="#linearGradient5048"
       gradientUnits="userSpaceOnUse"
       gradientTransform="matrix(2.774389,0,0,1.969706,-1892.179,-872.8854)" />
    <linearGradient
       id="linearGradient5157">
      <stop
         id="stop5159"
         style="stop-color:#c1c1c1;stop-opacity:1"
         offset="0" />
      <stop
         id="stop5161"
         style="stop-color:#909090;stop-opacity:1"
         offset="1" />
    </linearGradient>
    <linearGradient
       x1="9.8763561"
       y1="2.6014566"
       x2="9.8763561"
       y2="23.061668"
       id="linearGradient5163"
       xlink:href="#linearGradient5157"
       gradientUnits="userSpaceOnUse" />
    <linearGradient
       id="linearGradient11111">
      <stop
         id="stop11113"
         style="stop-color:white;stop-opacity:1"
         offset="0" />
      <stop
         id="stop11115"
         style="stop-color:#cdcdcd;stop-opacity:1"
         offset="0.91013825" />
      <stop
         id="stop11117"
         style="stop-color:#a1a1a1;stop-opacity:1"
         offset="1" />
    </linearGradient>
    <linearGradient
       x1="-28.531403"
       y1="17.955765"
       x2="-28.531403"
       y2="37.502914"
       id="linearGradient4380"
       xlink:href="#linearGradient11111"
       gradientUnits="userSpaceOnUse"
       gradientTransform="translate(34.378004,-14.501322)" />
    <linearGradient
       id="linearGradient3390">
      <stop
         id="stop3392"
         style="stop-color:#425e7b;stop-opacity:1"
         offset="0" />
      <stop
         id="stop3394"
         style="stop-color:#7a91a7;stop-opacity:1"
         offset="1" />
    </linearGradient>
    <linearGradient
       x1="9.7045717"
       y1="20.882006"
       x2="9.7045717"
       y2="4.3030405"
       id="linearGradient4377"
       xlink:href="#linearGradient3390"
       gradientUnits="userSpaceOnUse"
       gradientTransform="matrix(0.9945751,0,0,0.9945751,-0.3392671,1.7177729)" />
    <linearGradient
       id="linearGradient7012-661-145-733-759-865-745">
      <stop
         id="stop2699"
         style="stop-color:#9cbbd9;stop-opacity:1"
         offset="0" />
      <stop
         id="stop2701"
         style="stop-color:#5c82ab;stop-opacity:1"
         offset="1" />
    </linearGradient>
    <radialGradient
       cx="7.8185525"
       cy="8.5608768"
       r="11.268134"
       fx="7.8185525"
       fy="8.5608768"
       id="radialGradient3334"
       xlink:href="#linearGradient7012-661-145-733-759-865-745"
       gradientUnits="userSpaceOnUse"
       gradientTransform="matrix(1.6899516,0,0,1.0436086,-5.448971,0.9617527)" />
    <linearGradient
       id="linearGradient3752">
      <stop
         id="stop3754"
         style="stop-color:white;stop-opacity:1"
         offset="0" />
      <stop
         id="stop3760"
         style="stop-color:white;stop-opacity:1"
         offset="0.84754151" />
      <stop
         id="stop3756"
         style="stop-color:white;stop-opacity:0"
         offset="1" />
    </linearGradient>
    <radialGradient
       cx="4.02005"
       cy="5.5926585"
       r="10.273108"
       fx="4.02005"
       fy="5.5926585"
       id="radialGradient4372"
       xlink:href="#linearGradient3752"
       gradientUnits="userSpaceOnUse"
       gradientTransform="matrix(-0.01680222,1.3942814,-1.79662,-0.02165073,14.152267,2.1566239)" />
    <linearGradient
       id="linearGradient8265-821-176-38-919-66-249">
      <stop
         id="stop2687"
         style="stop-color:white;stop-opacity:1"
         offset="0" />
      <stop
         id="stop2689"
         style="stop-color:white;stop-opacity:0"
         offset="1" />
    </linearGradient>
    <linearGradient
       x1="18.03083"
       y1="16.407909"
       x2="20.054544"
       y2="24.627615"
       id="linearGradient3332"
       xlink:href="#linearGradient8265-821-176-38-919-66-249"
       gradientUnits="userSpaceOnUse" />
    <linearGradient
       id="linearGradient4845">
      <stop
         id="stop4847"
         style="stop-color:white;stop-opacity:1"
         offset="0" />
      <stop
         id="stop4849"
         style="stop-color:#b6b6b6;stop-opacity:1"
         offset="1" />
    </linearGradient>
    <radialGradient
       cx="17.81411"
       cy="24.149399"
       r="9.125"
       fx="17.81411"
       fy="24.149399"
       id="radialGradient2597"
       xlink:href="#linearGradient4845"
       gradientUnits="userSpaceOnUse"
       gradientTransform="matrix(-1.4145272,0,1.5710418e-8,1.3558893,-20.576789,-26.178356)" />
  </defs>
  <g
     id="layer1">
    <g
       transform="matrix(0.5459263,0,0,0.5168524,-1.0020361,-0.5781821)"
       id="g3490"
       style="stroke-width:1.88256383;stroke-miterlimit:4;stroke-dasharray:none">
      <g
         transform="matrix(0.02165152,0,0,0.01485743,43.0076,42.68539)"
         id="g5022"
         style="stroke-width:104.96237946;stroke-miterlimit:4;stroke-dasharray:none;display:inline">
        <rect
           width="1339.6335"
           height="478.35718"
           x="-1559.2523"
           y="-150.69685"
           id="rect4173"
           style="opacity:0.40206185;fill:url(#linearGradient4357);fill-opacity:1;fill-rule:nonzero;stroke:none;stroke-width:104.96237946;marker:none;visibility:visible;display:inline;overflow:visible" />
        <path
           d="m -219.61876,-150.68038 c 0,0 0,478.33079 0,478.33079 142.874166,0.90045 345.40022,-107.16966 345.40014,-239.196175 0,-132.026537 -159.436816,-239.134595 -345.40014,-239.134615 z"
           id="path5058"
           style="opacity:0.40206185;fill:url(#radialGradient4359);fill-opacity:1;fill-rule:nonzero;stroke:none;stroke-width:104.96237946;marker:none;visibility:visible;display:inline;overflow:visible" />
        <path
           d="m -1559.2523,-150.68038 c 0,0 0,478.33079 0,478.33079 -142.8742,0.90045 -345.4002,-107.16966 -345.4002,-239.196175 0,-132.026537 159.4368,-239.134595 345.4002,-239.134615 z"
           id="path5018"
           style="opacity:0.40206185;fill:url(#radialGradient4361);fill-opacity:1;fill-rule:nonzero;stroke:none;stroke-width:104.96237946;marker:none;visibility:visible;display:inline;overflow:visible" />
      </g>
    </g>
    <path
       d="m 2.6510299,2.5338039 c -0.085539,0 -0.158869,0.092747 -0.158869,0.188543 l 0,1.80342 -1.196774,0 -0.603702,0 c -0.106745,0 -0.190642,0.094861 -0.190642,0.188543 l 0,0.377085 0,4.1702921 c -0.010775,3.954554 -0.031774,8.079318 -0.031774,11.721073 0.029084,0.895035 0.537241,1.505142 0.889665,1.508342 1.012736,0.0092 0.539272,-0.004 1.048535,0 6.4703329,-0.0161 13.5789171,-0.07817 20.0492481,-0.09427 0.05421,0.0069 -1.476715,-0.107725 -1.461594,-1.445495 1e-6,-4.672947 -0.502047,-11.186992 -0.502047,-15.8599411 0,-0.186878 -0.01544,-0.290886 -0.03177,-0.377085 -0.01261,-0.066563 -0.0287,-0.09887 -0.06355,-0.125695 -0.02786,-0.024451 -0.05455,-0.057043 -0.09532,-0.062848 l -9.835171,0 0,-1.80342 c 0,-0.095796 -0.07333,-0.188543 -0.158869,-0.188543 l -7.6573641,0 z"
       id="path3496"
       style="fill:url(#linearGradient4380);fill-opacity:1;stroke:url(#linearGradient5163);stroke-width:1.01114547;stroke-linecap:round;stroke-linejoin:round;stroke-miterlimit:4;stroke-opacity:1;stroke-dasharray:none;display:inline" />
    <path
       d="m 3.4993539,6.5471259 c 10.5699021,0 13.0304441,4.6e-4 19.9935051,-0.027539 0,1.570444 0.258156,16.0402751 -0.484112,16.0402751 -0.714048,0 -14.0456512,-0.09435 -21.0087101,-0.06635 1.471684,0 1.499317,-0.622748 1.499317,-15.9463841 z"
       id="path3498"
       style="fill:url(#radialGradient3334);fill-opacity:1;stroke:url(#linearGradient4377);stroke-width:1;stroke-linecap:round;stroke-linejoin:round;stroke-miterlimit:4;stroke-opacity:1;stroke-dasharray:none;display:inline" />
    <path
       d="m 22.938799,7.6088419 c 0,0 -16.8318011,0.09361 -18.3967961,-0.092369 C 4.4590639,21.345907 4.0410549,21.955515 4.0410549,21.955515"
       id="path3211"
       style="opacity:0.4;fill:none;stroke:url(#radialGradient4372);stroke-width:0.98119503;stroke-linecap:butt;stroke-linejoin:miter;stroke-miterlimit:4;stroke-opacity:1;stroke-dasharray:none;display:inline" />
    <path
       d="m 3.21875,5.34375 c -1.5389481,0 -2.8125,1.273552 -2.8125,2.8125 l 0,16 c 0.005894,0.286233 0.14841957,0.612577 0.375,0.8125 0.2265775,0.199921 0.5161946,0.284272 0.84375,0.25 0.010415,2.66e-4 0.020835,2.66e-4 0.03125,0 l 45,-7.125 c 0.521773,-0.08229 0.930206,-0.53433 0.9375,-1.0625 l 0,-8.875 c 0,-1.538948 -1.273552,-2.8125 -2.8125,-2.8125 l -41.5625,0 z"
       transform="matrix(0.4450331,0,0,0.4023652,2.8192053,3.8498613)"
       id="path2608"
       style="opacity:0.2;fill:url(#linearGradient3332);fill-opacity:1;fill-rule:evenodd;stroke:none" />
    <g
       transform="translate(60.01096,3.9441506)"
       id="g2500">
      <path
         d="m -46.377211,5.345003 9.09499,8.827331 -4.146245,0.133748 c 0,0 1.738748,3.61118 1.738748,3.61118 0.535,1.60497 -1.872498,2.206832 -2.273748,1.003106 0,0 -1.604998,-3.611181 -1.604998,-3.611181 l -2.942496,3.143066 0.133749,-13.10725 z"
         id="path3970"
         style="fill:url(#radialGradient2597);fill-opacity:1;fill-rule:evenodd;stroke:#666;stroke-width:1.00000012;stroke-linecap:butt;stroke-linejoin:round;stroke-miterlimit:4;stroke-opacity:1;stroke-dasharray:none;stroke-dashoffset:0;marker:none;visibility:visible;display:inline;overflow:visible" />
      <path
         d="m -45.370638,7.7349813 5.731044,5.5252967 -3.30363,0.09366 c 0,0 2.117355,4.535206 2.117355,4.535206 0.347329,0.612775 -0.08255,0.977443 -0.291272,0.422235 0,0 -2.20671,-4.688679 -2.20671,-4.688679 l -2.129206,2.246955 0.08242,-8.1346737 z"
         id="path4853"
         style="opacity:0.4;fill:none;stroke:white;stroke-width:1;stroke-linecap:butt;stroke-linejoin:miter;stroke-miterlimit:4;stroke-opacity:1;stroke-dasharray:none;stroke-dashoffset:0;marker:none;visibility:visible;display:inline;overflow:visible" />
    </g>
  </g>
</svg>

<?xml version="1.0" encoding="UTF-8" standalone="no"?>
<!-- Created with Inkscape (http://www.inkscape.org/) -->
<svg
   xmlns:svg="http://www.w3.org/2000/svg"
   xmlns="http://www.w3.org/2000/svg"
   xmlns:xlink="http://www.w3.org/1999/xlink"
   version="1.0"
   width="24"
   height="24"
   id="svg2">
  <defs
     id="defs4">
    <radialGradient
       cx="605.71429"
       cy="486.64789"
       r="117.14286"
       fx="605.71429"
       fy="486.64789"
       id="radialGradient4361"
       xlink:href="#linearGradient5060"
       gradientUnits="userSpaceOnUse"
       gradientTransform="matrix(-2.774389,0,0,1.969706,112.7623,-872.8854)" />
    <linearGradient
       id="linearGradient5060">
      <stop
         id="stop5062"
         style="stop-color:#000000;stop-opacity:1"
         offset="0" />
      <stop
         id="stop5064"
         style="stop-color:#000000;stop-opacity:0"
         offset="1" />
    </linearGradient>
    <radialGradient
       cx="605.71429"
       cy="486.64789"
       r="117.14286"
       fx="605.71429"
       fy="486.64789"
       id="radialGradient4359"
       xlink:href="#linearGradient5060"
       gradientUnits="userSpaceOnUse"
       gradientTransform="matrix(2.774389,0,0,1.969706,-1891.633,-872.8854)" />
    <linearGradient
       id="linearGradient5048">
      <stop
         id="stop5050"
         style="stop-color:#000000;stop-opacity:0"
         offset="0" />
      <stop
         id="stop5056"
         style="stop-color:#000000;stop-opacity:1"
         offset="0.5" />
      <stop
         id="stop5052"
         style="stop-color:#000000;stop-opacity:0"
         offset="1" />
    </linearGradient>
    <linearGradient
       x1="302.85715"
       y1="366.64789"
       x2="302.85715"
       y2="609.50507"
       id="linearGradient4357"
       xlink:href="#linearGradient5048"
       gradientUnits="userSpaceOnUse"
       gradientTransform="matrix(2.774389,0,0,1.969706,-1892.179,-872.8854)" />
    <linearGradient
       id="linearGradient5157">
      <stop
         id="stop5159"
         style="stop-color:#c1c1c1;stop-opacity:1"
         offset="0" />
      <stop
         id="stop5161"
         style="stop-color:#909090;stop-opacity:1"
         offset="1" />
    </linearGradient>
    <linearGradient
       x1="9.8763561"
       y1="2.6014566"
       x2="9.8763561"
       y2="23.061668"
       id="linearGradient5163"
       xlink:href="#linearGradient5157"
       gradientUnits="userSpaceOnUse" />
    <linearGradient
       id="linearGradient11111">
      <stop
         id="stop11113"
         style="stop-color:#ffffff;stop-opacity:1"
         offset="0" />
      <stop
         id="stop11115"
         style="stop-color:#cdcdcd;stop-opacity:1"
         offset="0.91013825" />
      <stop
         id="stop11117"
         style="stop-color:#a1a1a1;stop-opacity:1"
         offset="1" />
    </linearGradient>
    <linearGradient
       x1="-28.531403"
       y1="17.955765"
       x2="-28.531403"
       y2="37.502914"
       id="linearGradient4380"
       xlink:href="#linearGradient11111"
       gradientUnits="userSpaceOnUse"
       gradientTransform="translate(34.378004,-14.501322)" />
    <linearGradient
       id="linearGradient3390">
      <stop
         id="stop3392"
         style="stop-color:#425e7b;stop-opacity:1"
         offset="0" />
      <stop
         id="stop3394"
         style="stop-color:#7a91a7;stop-opacity:1"
         offset="1" />
    </linearGradient>
    <linearGradient
       x1="9.7045717"
       y1="20.882006"
       x2="9.7045717"
       y2="4.3030405"
       id="linearGradient4377"
       xlink:href="#linearGradient3390"
       gradientUnits="userSpaceOnUse"
       gradientTransform="matrix(0.9945751,0,0,0.9945751,-0.3392671,1.7177729)" />
    <linearGradient
       id="linearGradient7012-661-145-733-759-865-745">
      <stop
         id="stop2699"
         style="stop-color:#9cbbd9;stop-opacity:1"
         offset="0" />
      <stop
         id="stop2701"
         style="stop-color:#5c82ab;stop-opacity:1"
         offset="1" />
    </linearGradient>
    <radialGradient
       cx="7.8185525"
       cy="8.5608768"
       r="11.268134"
       fx="7.8185525"
       fy="8.5608768"
       id="radialGradient3334"
       xlink:href="#linearGradient7012-661-145-733-759-865-745"
       gradientUnits="userSpaceOnUse"
       gradientTransform="matrix(1.6899516,0,0,1.0436086,-5.448971,0.9617527)" />
    <linearGradient
       id="linearGradient3752">
      <stop
         id="stop3754"
         style="stop-color:#ffffff;stop-opacity:1"
         offset="0" />
      <stop
         id="stop3760"
         style="stop-color:#ffffff;stop-opacity:1"
         offset="0.84754151" />
      <stop
         id="stop3756"
         style="stop-color:#ffffff;stop-opacity:0"
         offset="1" />
    </linearGradient>
    <radialGradient
       cx="4.02005"
       cy="5.5926585"
       r="10.273108"
       fx="4.02005"
       fy="5.5926585"
       id="radialGradient4372"
       xlink:href="#linearGradient3752"
       gradientUnits="userSpaceOnUse"
       gradientTransform="matrix(-1.6802223e-2,1.3942814,-1.79662,-2.1650729e-2,14.152267,2.1566239)" />
    <linearGradient
       id="linearGradient8265-821-176-38-919-66-249">
      <stop
         id="stop2687"
         style="stop-color:#ffffff;stop-opacity:1"
         offset="0" />
      <stop
         id="stop2689"
         style="stop-color:#ffffff;stop-opacity:0"
         offset="1" />
    </linearGradient>
    <linearGradient
       x1="18.03083"
       y1="16.407909"
       x2="20.054544"
       y2="24.627615"
       id="linearGradient3332"
       xlink:href="#linearGradient8265-821-176-38-919-66-249"
       gradientUnits="userSpaceOnUse" />
    <linearGradient
       id="linearGradient4845">
      <stop
         id="stop4847"
         style="stop-color:#ffffff;stop-opacity:1"
         offset="0" />
      <stop
         id="stop4849"
         style="stop-color:#b6b6b6;stop-opacity:1"
         offset="1" />
    </linearGradient>
    <radialGradient
       cx="17.81411"
       cy="24.149399"
       r="9.125"
       fx="17.81411"
       fy="24.149399"
       id="radialGradient2597"
       xlink:href="#linearGradient4845"
       gradientUnits="userSpaceOnUse"
       gradientTransform="matrix(-1.4145272,0,1.5710418e-8,1.3558893,-20.576789,-26.178356)" />
  </defs>
  <g
     id="layer1">
    <g
       transform="matrix(0.5459263,0,0,0.5168524,-1.0020361,-0.5781821)"
       id="g3490"
       style="stroke-width:1.88256383;stroke-miterlimit:4;stroke-dasharray:none">
      <g
         transform="matrix(2.165152e-2,0,0,1.485743e-2,43.0076,42.68539)"
         id="g5022"
         style="stroke-width:104.96237946;stroke-miterlimit:4;stroke-dasharray:none;display:inline">
        <rect
           width="1339.6335"
           height="478.35718"
           x="-1559.2523"
           y="-150.69685"
           id="rect4173"
           style="opacity:0.40206185;fill:url(#linearGradient4357);fill-opacity:1;fill-rule:nonzero;stroke:none;stroke-width:104.96237946;stroke-linecap:round;stroke-linejoin:miter;marker:none;marker-start:none;marker-mid:none;marker-end:none;stroke-miterlimit:4;stroke-dasharray:none;stroke-dashoffset:0;stroke-opacity:1;visibility:visible;display:inline;overflow:visible" />
        <path
           d="M -219.61876,-150.68038 C -219.61876,-150.68038 -219.61876,327.65041 -219.61876,327.65041 C -76.744594,328.55086 125.78146,220.48075 125.78138,88.454235 C 125.78138,-43.572302 -33.655436,-150.68036 -219.61876,-150.68038 z"
           id="path5058"
           style="opacity:0.40206185;fill:url(#radialGradient4359);fill-opacity:1;fill-rule:nonzero;stroke:none;stroke-width:104.96237946;stroke-linecap:round;stroke-linejoin:miter;marker:none;marker-start:none;marker-mid:none;marker-end:none;stroke-miterlimit:4;stroke-dasharray:none;stroke-dashoffset:0;stroke-opacity:1;visibility:visible;display:inline;overflow:visible" />
        <path
           d="M -1559.2523,-150.68038 C -1559.2523,-150.68038 -1559.2523,327.65041 -1559.2523,327.65041 C -1702.1265,328.55086 -1904.6525,220.48075 -1904.6525,88.454235 C -1904.6525,-43.572302 -1745.2157,-150.68036 -1559.2523,-150.68038 z"
           id="path5018"
           style="opacity:0.40206185;fill:url(#radialGradient4361);fill-opacity:1;fill-rule:nonzero;stroke:none;stroke-width:104.96237946;stroke-linecap:round;stroke-linejoin:miter;marker:none;marker-start:none;marker-mid:none;marker-end:none;stroke-miterlimit:4;stroke-dasharray:none;stroke-dashoffset:0;stroke-opacity:1;visibility:visible;display:inline;overflow:visible" />
      </g>
    </g>
    <path
       d="M 2.6510299,2.5338039 C 2.5654909,2.5338039 2.4921609,2.6265509 2.4921609,2.7223469 L 2.4921609,4.5257669 L 1.2953869,4.5257669 L 0.6916849,4.5257669 C 0.5849399,4.5257669 0.5010429,4.6206279 0.5010429,4.7143099 L 0.5010429,5.0913949 L 0.5010429,9.261687 C 0.4902679,13.216241 0.4692689,17.341005 0.4692689,20.98276 C 0.4983529,21.877795 1.0065099,22.487902 1.3589339,22.491102 C 2.3716699,22.500297 1.8982059,22.487073 2.4074689,22.491102 C 8.8778018,22.475003 15.986386,22.412929 22.456717,22.396831 C 22.510931,22.403749 20.980002,22.289106 20.995123,20.951336 C 20.995124,16.278389 20.493076,9.764344 20.493076,5.0913949 C 20.493076,4.9045169 20.477636,4.8005089 20.461302,4.7143099 C 20.448688,4.6477469 20.432606,4.6154399 20.397755,4.5886149 C 20.369893,4.5641639 20.343206,4.5315719 20.302434,4.5257669 L 10.467263,4.5257669 L 10.467263,2.7223469 C 10.467263,2.6265509 10.393932,2.5338039 10.308394,2.5338039 L 2.6510299,2.5338039 z"
       id="path3496"
       style="fill:url(#linearGradient4380);fill-opacity:1;stroke:url(#linearGradient5163);stroke-width:1.01114547;stroke-linecap:round;stroke-linejoin:round;stroke-miterlimit:4;stroke-dasharray:none;stroke-opacity:1;display:inline" />
    <path
       d="M 3.4993539,6.5471259 C 14.069256,6.5471259 16.529798,6.5475859 23.492859,6.5195869 C 23.492859,8.0900309 23.751015,22.559862 23.008747,22.559862 C 22.294699,22.559862 8.9630958,22.465511 2.0000369,22.49351 C 3.4717209,22.49351 3.4993539,21.870762 3.4993539,6.5471259 z"
       id="path3498"
       style="fill:url(#radialGradient3334);fill-opacity:1;stroke:url(#linearGradient4377);stroke-width:1;stroke-linecap:round;stroke-linejoin:round;stroke-miterlimit:4;stroke-dasharray:none;stroke-opacity:1;display:inline" />
    <path
       d="M 22.938799,7.6088419 C 22.938799,7.6088419 6.1069979,7.7024519 4.5420029,7.5164729 C 4.4590639,21.345907 4.0410549,21.955515 4.0410549,21.955515"
       id="path3211"
       style="opacity:0.4;fill:none;fill-rule:evenodd;stroke:url(#radialGradient4372);stroke-width:0.98119503;stroke-linecap:butt;stroke-linejoin:miter;stroke-miterlimit:4;stroke-dasharray:none;stroke-opacity:1;display:inline" />
    <path
       d="M 3.21875,5.34375 C 1.6798019,5.34375 0.40625,6.617302 0.40625,8.15625 L 0.40625,24.15625 C 0.41214423,24.442483 0.55466957,24.768827 0.78125,24.96875 C 1.0078275,25.168671 1.2974446,25.253022 1.625,25.21875 C 1.635415,25.219016 1.645835,25.219016 1.65625,25.21875 L 46.65625,18.09375 C 47.178023,18.01146 47.586456,17.55942 47.59375,17.03125 L 47.59375,8.15625 C 47.59375,6.617302 46.320198,5.34375 44.78125,5.34375 L 3.21875,5.34375 z"
       transform="matrix(0.4450331,0,0,0.4023652,2.8192053,3.8498613)"
       id="path2608"
       style="opacity:0.2;fill:url(#linearGradient3332);fill-opacity:1;fill-rule:evenodd;stroke:none;stroke-width:1.00213289;stroke-linecap:round;stroke-linejoin:round;stroke-miterlimit:4;stroke-dasharray:none;stroke-dashoffset:0;stroke-opacity:1" />
    <g
       transform="translate(60.01096,3.9441506)"
       id="g2500">
      <path
         d="M -46.377211,5.345003 L -37.282221,14.172334 L -41.428466,14.306082 C -41.428466,14.306082 -39.689718,17.917262 -39.689718,17.917262 C -39.154718,19.522232 -41.562216,20.124094 -41.963466,18.920368 C -41.963466,18.920368 -43.568464,15.309187 -43.568464,15.309187 L -46.51096,18.452253 L -46.377211,5.345003 z"
         id="path3970"
         style="fill:url(#radialGradient2597);fill-opacity:1;fill-rule:evenodd;stroke:#666666;stroke-width:1.00000012;stroke-linecap:butt;stroke-linejoin:round;marker:none;marker-start:none;marker-mid:none;marker-end:none;stroke-miterlimit:4;stroke-dasharray:none;stroke-dashoffset:0;stroke-opacity:1;visibility:visible;display:inline;overflow:visible" />
      <path
         d="M -45.370638,7.7349813 L -39.639594,13.260278 L -42.943224,13.353938 C -42.943224,13.353938 -40.825869,17.889144 -40.825869,17.889144 C -40.47854,18.501919 -40.908414,18.866587 -41.117141,18.311379 C -41.117141,18.311379 -43.323851,13.6227 -43.323851,13.6227 L -45.453057,15.869655 L -45.370638,7.7349813 z"
         id="path4853"
         style="opacity:0.4;fill:none;fill-opacity:1;fill-rule:evenodd;stroke:#ffffff;stroke-width:1;stroke-linecap:butt;stroke-linejoin:miter;marker:none;marker-start:none;marker-mid:none;marker-end:none;stroke-miterlimit:4;stroke-dasharray:none;stroke-dashoffset:0;stroke-opacity:1;visibility:visible;display:inline;overflow:visible" />
    </g>
  </g>
</svg>
